images/icon/card-report.svg

<svg width="18" height="20" viewBox="0 0 18 20" fill="none" xmlns="http://www.w3.org/2000/svg">
<path d="M4 4V1C4 0.734784 4.10536 0.48043 4.29289 0.292893C4.48043 0.105357 4.73478 0 5 0H17C17.2652 0 17.5196 0.105357 17.7071 0.292893C17.8946 0.48043 18 0.734784 18 1V15C18 15.2652 17.8946 15.5196 17.7071 15.7071C17.5196 15.8946 17.2652 16 17 16H14V19C14 19.552 13.55 20 12.993 20H1.007C0.875127 20.0008 0.744397 19.9755 0.622322 19.9256C0.500247 19.8757 0.389233 19.8022 0.295659 19.7093C0.202084 19.6164 0.127793 19.5059 0.0770543 19.3842C0.0263156 19.2624 0.000129374 19.1319 0 19L0.00300002 5C0.00300002 4.448 0.453 4 1.009 4H4ZM2.002 6L2 18H12V6H2.002ZM6 4H14V14H16V2H6V4ZM4 9H10V11H4V9ZM4 13H10V15H4V13Z" fill="#EEBF45"/>
</svg>

<svg width="18" height="20" fill="none" xmlns="http://www.w3.org/2000/svg"><path d="M4 4V1a1 1 0 011-1h12a1 1 0 011 1v14a1 1 0 01-1 1h-3v3c0 .552-.45 1-1.007 1H1.007A1 1 0 010 19L.003 5c0-.552.45-1 1.006-1H4zM2.002 6L2 18h10V6H2.002zM6 4h8v10h2V2H6v2zM4 9h6v2H4V9zm0 4h6v2H4v-2z" fill="#EEBF45"/></svg>
